public/svgs/light/truck-flatbed.svg

<svg xmlns="http://www.w3.org/2000/svg" viewBox="0 0 640 512"><!-- Font Awesome Pro 6.0.0-alpha2 by @fontawesome - https://fontawesome.com License - https://fontawesome.com/license (Commercial License) --><path d="M624 384H608V247.672C608 228.58 601.17 210.117 588.746 195.621L517.736 112.768C508.615 102.125 495.299 96 481.281 96H416C398.326 96 384 110.326 384 128V288C384 296.836 391.164 304 400 304S416 296.836 416 288V256H576V384H570.4C557.18 346.773 521.705 320 480 320S402.82 346.773 389.6 384H250.4C237.18 346.773 201.705 320 160 320S82.82 346.773 69.6 384H16C7.164 384 0 391.162 0 400C0 408.836 7.164 416 16 416H64C64 468.938 107.062 512 160 512S256 468.938 256 416H384C384 468.938 427.062 512 480 512S576 468.938 576 416H624C632.844 416 640 408.844 640 400S632.844 384 624 384ZM416 224V128H481.281C485.969 128 490.391 130.031 493.422 133.578L564.453 216.438C566.463 218.789 568.18 221.34 569.688 224H416ZM160 480C124.703 480 96 451.297 96 416S124.703 352 160 352S224 380.703 224 416S195.297 480 160 480ZM480 480C444.703 480 416 451.297 416 416S444.703 352 480 352S544 380.703 544 416S515.297 480 480 480Z"/></svg>

<svg xmlns="http://www.w3.org/2000/svg" viewBox="0 0 640 512"><!--! Font Awesome Pro 6.5.1 by @fontawesome - https://fontawesome.com License - https://fontawesome.com/license (Commercial License) Copyright 2023 Fonticons, Inc. --><path d="M408 96c-13.3 0-24 10.7-24 24V384H250.5c-13.2-37.3-48.7-64-90.5-64s-77.4 26.7-90.5 64H16c-8.8 0-16 7.2-16 16s7.2 16 16 16H64c0 53 43 96 96 96s96-43 96-96H384c0 53 43 96 96 96s96-43 96-96h48c8.8 0 16-7.2 16-16s-7.2-16-16-16H608V235.8c0-11.5-4.1-22.5-11.6-31.2l-78.7-91.8C508.6 102.1 495.3 96 481.3 96H408zm8 160H576V384h-5.5c-13.2-37.3-48.7-64-90.5-64c-24.6 0-47 9.2-64 24.4V256zm154.9-32H416V128h65.3c4.7 0 9.1 2 12.1 5.6L570.9 224zM96 416a64 64 0 1 1 128 0A64 64 0 1 1 96 416zm384-64a64 64 0 1 1 0 128 64 64 0 1 1 0-128z"/></svg>
